symbolic/22x22/apps/estmob-sendanywhere.svg

<svg xmlns="http://www.w3.org/2000/svg" width="22" height="22" version="1">
 <rect style="opacity:0.2" width="20" height="20" x="1" y="1.5" rx="6" ry="6"/>
 <rect style="fill:#e4e4e4" width="20" height="20" x="1" y="1" rx="6" ry="6"/>
 <path style="opacity:0.1" d="M 15.261719,3.499994 A 0.26473916,0.26473916 0 0 0 15,3.7636659 V 4.499994 H 7 c 0,0 -0.7087517,-0.013788 -1.4472656,0.3554688 C 4.8142205,5.2247196 4,6.1666607 4,7.499994 v 8.000001 H 6 V 7.499994 C 6,6.8333273 6.1857795,6.7752683 6.4472656,6.6445252 6.7087517,6.5137822 7,6.499994 7,6.499994 h 8.5 2.236328 A 0.26473916,0.26473916 0 0 0 17.921875,6.0488221 L 15.451172,3.578119 A 0.26473916,0.26473916 0 0 0 15.261719,3.499994 Z m 0.738281,4 v 8.000001 c 0,0.666666 -0.185779,0.724726 -0.447266,0.855469 C 15.291248,16.486207 15,16.499995 15,16.499995 H 6.7539062 6.734375 6.5 4.2636719 A 0.26473916,0.26473916 0 0 0 4.078125,16.951167 L 6.5488281,19.42187 A 0.26473916,0.26473916 0 0 0 6.7382812,19.499995 0.26473916,0.26473916 0 0 0 7,19.23437 v -0.734375 h 8 c 0,0 0.708752,0.01379 1.447266,-0.355469 C 17.185779,17.775269 18,16.833328 18,15.499995 V 7.499994 Z M 9,9.499995 c -0.554,0 -1,0.446 -1,1 v 1 c 0,0.554 0.446,1 1,1 0.554,0 1,-0.446 1,-1 v -1 c 0,-0.554 -0.446,-1 -1,-1 z m 4,0 c -0.554,0 -1,0.446 -1,1 v 1 c 0,0.554 0.446,1 1,1 0.554,0 1,-0.446 1,-1 v -1 c 0,-0.554 -0.446,-1 -1,-1 z"/>
 <path style="opacity:0.2;fill:#ffffff" d="M 7,1 C 3.676,1 1,3.676 1,7 v 0.5 c 0,-3.324 2.676,-6 6,-6 h 8 c 3.324,0 6,2.676 6,6 V 7 C 21,3.676 18.324,1 15,1 Z"/>
 <path style="fill:none;stroke:#ff2d55;stroke-width:2" d="M 5,15 V 7 C 5,5 7,5 7,5 h 8.5"/>
 <path style="fill:#ff2d55" d="M 15.260921,2.9999226 A 0.26473916,0.26473916 0 0 0 15,3.2646357 V 5.7352875 A 0.26473916,0.26473916 0 0 0 15.264713,6 h 2.470652 a 0.26473916,0.26473916 0 0 0 0.18716,-0.451873 L 15.451873,3.0774754 a 0.26473916,0.26473916 0 0 0 -0.190952,-0.077553 z"/>
 <path style="fill:none;stroke:#ff2d55;stroke-width:2" d="m 17,7 v 7.9999 c 0,1.999999 -2,1.999999 -2,1.999999 H 6.5"/>
 <path style="fill:#ff2d55" d="M 6.739079,18.999977 A 0.26473916,0.26473916 0 0 0 7,18.735264 V 16.264612 A 0.26473916,0.26473916 0 0 0 6.7352875,15.999899 h -2.470652 a 0.26473916,0.26473916 0 0 0 -0.18716,0.451873 l 2.4706515,2.470652 a 0.26473916,0.26473916 0 0 0 0.190952,0.07755 z"/>
 <rect style="fill:#ff2d55" width="2" height="3" x="8" y="9" ry="1"/>
 <rect style="fill:#ff2d55" width="2" height="3" x="12" y="9" ry="1"/>
</svg>

<svg xmlns="http://www.w3.org/2000/svg" width="22" height="22" version="1"><rect style="opacity:.2" width="20" height="20" x="1" y="1.5" rx="6" ry="6"/><rect style="fill:#e4e4e4" width="20" height="20" x="1" y="1" rx="6" ry="6"/><path style="opacity:.1" d="M15.262 3.5a.265.265 0 0 0-.262.264V4.5H7s-.709-.014-1.447.355C4.814 5.225 4 6.167 4 7.5v8h2v-8c0-.667.186-.725.447-.855C6.71 6.514 7 6.5 7 6.5h10.736a.265.265 0 0 0 .186-.451l-2.47-2.47a.265.265 0 0 0-.19-.079zm.738 4v8c0 .667-.186.725-.447.855-.262.131-.553.145-.553.145H4.264a.265.265 0 0 0-.186.451l2.47 2.47a.265.265 0 0 0 .19.079.265.265 0 0 0 .262-.266V18.5h8s.709.014 1.447-.355C17.186 17.775 18 16.833 18 15.5v-8zm-7 2c-.554 0-1 .446-1 1v1c0 .554.446 1 1 1s1-.446 1-1v-1c0-.554-.446-1-1-1zm4 0c-.554 0-1 .446-1 1v1c0 .554.446 1 1 1s1-.446 1-1v-1c0-.554-.446-1-1-1z"/><path style="opacity:.2;fill:#fff" d="M7 1C3.676 1 1 3.676 1 7v.5c0-3.324 2.676-6 6-6h8c3.324 0 6 2.676 6 6V7c0-3.324-2.676-6-6-6z"/><path style="fill:none;stroke:#ff2d55;stroke-width:2" d="M5 15V7c0-2 2-2 2-2h8.5"/><path style="fill:#ff2d55" d="M15.26 3a.265.265 0 0 0-.26.265v2.47a.265.265 0 0 0 .265.265h2.47a.265.265 0 0 0 .188-.452l-2.471-2.47A.265.265 0 0 0 15.26 3z"/><path style="fill:none;stroke:#ff2d55;stroke-width:2" d="M17 7v8c0 2-2 2-2 2H6.5"/><path style="fill:#ff2d55" d="M6.74 19a.265.265 0 0 0 .26-.265v-2.47A.265.265 0 0 0 6.735 16h-2.47a.265.265 0 0 0-.188.452l2.471 2.47A.265.265 0 0 0 6.74 19z"/><rect style="fill:#ff2d55" width="2" height="3" x="8" y="9" ry="1"/><rect style="fill:#ff2d55" width="2" height="3" x="12" y="9" ry="1"/></svg>
